X:6230
T:Squirrel in the Tree
R:Jig
C:Trad.
O:England
M:6/8
L:1/8
K:G
A|BBB B2B|({Bd}B2)AG AB|ccc c2B|({cb}c2)de fg|
fff fff|({fa}f)edc BA|1 .GBd e2d|B3 Bdc:|2 .GBd b2a|g3 d2g|
bbb b2b|b2a gfe|ddd d2e|({de}d2)cB dg|
fff fff|({fa}f)edc BA|1 .GBd e2d|B3 Bdg:|2 .GBd bfa|g3 g||


